X:1
T:Buxtehude - Trio Sonata No.1 in F. {Professional production full score.}
%%score [ ( 1 2 ) 3 4 ] { ( 5 6 9 ) | ( 7 8 ) }
L:1/8
Q:1/4=110
M:4/4
K:Bb
V:1 treble nm="Violino."
V:2 treble 
V:3 alto nm="Viola da gamba."
V:4 bass nm="Cembalo."
V:5 treble nm="Harpsichord"
V:6 treble 
V:9 treble 
V:7 bass 
V:8 bass 
V:1
"^Vivace.""^S o n a t a  IV." z2 z!f! f/f/ f2 z2 | z4 z2 z f/f/ | f2 z2 z4 | %3
 z2 z f Md3/2c/4B/4 f2- | ff b>_a g B2 e | (e<d) (f<c) (d<c) (d<A) | (B<A) (B<F) Gg Pcf | %7
 d3/2c/4B/4 f2 z f/f/ f2 | z g b>a ac (c/d/e) | z d/d/ d2 z d (d/e/f-) | fe/d/ cf d3/2c/4B/4 f2 | %11
 z f b2 z g d>=e | fa Mc2 z d/d/ d2 | z d/d/ d3 c/B/ MB>A | d/e/f/g/ c/d/e/f/ B/c/d/e/ f/g/_a/b/ | %15
 g/=a/b/c'/ b/a/b/c'/ A/B/c/d/ c/d/e/f/ | d/e/f/g/ A/B/c/d/ B/c/d/e/ F/G/_A/B/ | %17
 G/A/B/c/ C/D/E/F/ D/F/B,/d/ c/F/c/f/ | d/B/d/f/ F/B/d/b/ g/G/B/e/ d/B/d/b/ | %19
 a/A/c/f/ f/c/d/e/ d/F/B/d/ d/A/B/c/ | B/4F/4G/4A/4B/4c/4d/4e/4 f/b/_a/b/ g/c/d/e/ Mc>B | %21
 B2 z2 z4 | z8 | z8 | z8 | z8 | z8 | z4 z2 z f | d3/2c/4B/4 f2 z2 z/ f/b/_a/ | %29
 g2 z/ g/d/=e/ f2 z/ c/d/_e/ | d2 z/ c/f/e/ dBBB | B/B/e/e/ e/d/c/d/ B z z f | %32
 d3/2c/4B/4 f2 z/ c/G/A/ B2 | A/c/A/B/ c2 z/ B/F/G/ A>c | B/g/d/=e/ f/F/B/_A/ G/G/c/B/ BA/f/ | %35
 d3/2c/4B/4 f2 z2 z/ b/b/_a/ | g/=a/g/a/ b/c'/b/c'/ a/c/d/e/ f/g/f/e/ | %37
 d/e/d/e/ d/e/c/d/ B/c/B/c/ B/c/B/d/ | G/B/c/B/ MB>A BF z f | d3/2c/4B/4 f2- fe ee | %40
 ed Md>c cB BA | AG MG>F FE/D/ CF | D3/2C/4B,/4 F2 z2 z/ f/g/_a/ | %43
 g/B/G/A/ B/c/d/=e/ f/c/A/B/ c/d/_e/f/ | d/B/F/G/ A/B/c/d/ B/G/D/=E/ F/G/_A/B/ | %45
 Gg/f/ e/d/c/f/ d3/2c/4B/4 f2 | z8 | z2 z f/f/ f2 z2 | z8 | z2 z f d3/2c/4B/4 f2 | z f z b af z c | %51
 z d z A z B z B | z B z A BB, z f | d3/2c/4B/4 f/b/_a/b/ g z z/ c/d/=e/ | %54
 f2 z/ d/_e/f/ d2 z/ B/c/d/ | B2 z/ g/_a/b/ g/a/g/f/ e/d/c/f/ | d3/2c/4B/4 f2 z2 z b | %57
 g2 z d f2 z e | d2 z f B2 z d | GB MB>A B z z f | d3/2c/4B/4 f>F G z/ A/ B z/ G/ | %61
 A z/ B/ c z/ c/ F z/ G/ A z/ a/ | d z/ =e/ f z/ _a/ g z/ g/ c z/ f/ | %63
 d z/ d/ c z/ e/ d z/ e/ f z/ _a/ | g z/ f/ e z/ d/ f z/ A/ c z/ c/ | %65
 F z/ d/ A z/ c/ B z/ B/ F z/ B/ | G z/ e/ d>A B/B/d/B/ f z | z/ B/d/B/ f z z/ G/B/G/ d z | %68
 z/ f/a/f/ c' z z/ d/f/d/ a z | z/ B/d/B/ f z z/ e/f/g/ c>f | d3/2c/4B/4 f>f d3/2c/4B/4 f>F | %71
 G/A/G/A/ B/c/B/c/ A/B/A/B/ c/F/E/F/ | D/d/c/d/ A/f/e/f/ B/b/a/b/ f/d'/c'/d'/ | %73
 G,/C/B,/C/ A,>f d3/2c/4B/4 f2 | z2 z d/f/ c/e/c/e/ d/B/=e/B/ | %75
 A/f/A/f/ c/f/e/f/ d/f/d/f/ A/f/A/f/ | B/b/B/b/ B/b/B/b/ d/b/d/b/ d/b/c/a/ | %77
 bd/d/ cf/f/ df/f/ bF/F/ | Ge/e/ db/b/ ac/c/ fE/E/ | DB/B/ Ad/d/ Bd/d/ fF/F/ | %80
 Gg/g/ fe/e/ dd/d/ f/f/c/c/ | d2 z2 z g/g/ b/b/B/B/ | fa/a/ c'/c'/c/c/ df/f/ a/a/A/A/ | %83
 Bd/d/ f/f/F/F/ G/g/e/B/ MB>A | B2 z2 z4 | z (G/A/) (B/c/d/=e/) (f/g/a/b/) (c'/d'/e'/d'/) | %86
 (D/=E/F/G/) (A/B/c/A/) (B/c/d/e/) (f/g/_a/g/) | g2 z/ g/f/e/ d/d/d/f/ f/f/f/c/ | %88
 d/d/d/f/ b/b/b/f/ g/g/g/c/ e/e/e/B/ | d/d/d/A/ c/c/c/C/ D/D/D/d/ d/d/d/A/ | %90
 B/B/B/b/ b/b/b/f/ g/g/g/b/ d/e/c/d/ | (3Bd=e (3fc_e (3dga (3bf_a | (3gGA (3BcB (3Aab (3c'fe | %93
 (3dfb (3adc (3Bdg (3fB_A | (3GBe (3dcf (3dBd (3:2:1f3 | z8 | z8 | z8 | z2 (3z z f (3dBd (3fF_A | %99
 (3Gga (3bd=e (3fAB (3cf_e | (3dBd (3fce (3dBd (3fg_a | (3cde (3dcf (3dBd (3:2:1f3 | %102
 z2 (3z b_a (3:2:1g3 (3z d=e | (3:2:1f3 (3z ce (3:2:1d3 (3z Ac | (3Bd=e (3fg_a (3gce (3d3/2c/B | %105
 (6:4:6B/c/d/e/f/g/ (6:4:6f/g/a/b/c'/c/ (6:4:6d/f/g/a/b/d/ (6:4:6f/B/c/B/_A/B/ | %106
 (6:4:6G/e/d/e/d/c/ (6:4:6B/d/e/d/c/B/ (6:4:6A/c/A/F/c/A/ (6:4:6f/c/A/c/F/E/ | %107
 (6:4:6D/F/G/A/B/d/ (6:4:6A/c/d/e/f/A/ (6:4:6B/d/e/f/g/B/ (6:4:6f/A/B/c/d/F/ | %108
 (6:4:5Ge/d/c/B/ (6:4:6A/G/F/E/D/C/ (3:2:1B,3 (3z z f | (3dBd (6:4:6f/g/f/e/d/c/ (3:2:1B3 (3z z B | %110
 (3AFA (6:4:6c/d/c/B/A/G/ (3:2:1F3 (3z z f | %111
 (3dBd (6:4:6f/g/f/e/d/c/[Q:1/4=80] (3:2:4Bb/b/b (3B3/2c/A | B2 !breath!z2 z4 || %113
[M:4/4][Q:1/4=35]"^Lento." z4 z!mp! d/e/ dd | d4 z b^f>f | g4 z dA>A | B4 z FB>F | G4 z Gc>G | %118
 A4 z AMd>A | B>AGd e>d Mc>B | ABcB/A/ z D d2- | d>c d/c/B- B/A/B/c/ MB>A | (B/A/G) e3 fed | %123
 g>f e>d cF f2- | f>ed>c BA BA/G/ | A2 Bc- cB[Q:1/4=30] TB>A || %126
!f!"^Allegro."[Q:1/4=100] Bf bd fe/d/ cf/e/ | Bb/a/ gc'/b/ a/b/c'/b/ a/g/f/e/ | d>d c>c' f>g _af | %129
 bB ec f4 | z BfA B_A/G/ FB/A/ | Ge/d/ cf/e/ d/e/f/e/ d/c/B/_A/ | G2 z2 e/f/g/f/ e/d/c/B/ | %133
 A/B/A/G/ F>f c>d ec | fE BG c3 c | d/e/f/e/ d/c/B/_A/ G/=A/B/c/ d/e/f/B/ | %136
 e/G/c/B/ A/G/F/E/ D/F/G/A/ B/c/d/=e/ | fF BD FE/D/ CF/E/ | DB/A/ Gc/B/ A/B/c/B/ A/G/F/E/ | %139
 DF TB3/2c/4d/4 eg T_a3/2g/4a/4 | b_a/g/ fb/a/ g/a/b/a/ g/f/e/d/ | c/_d/e/d/ c/d/B/c/ _Ac- c/F/B | %142
 =E/B/_A/G/ AG/F/ Fc fA | B_A/G/ FB/A/ G2 z2 | z4 z dgB | dc/B/ Ad/c/ =Bg/f/ ec'/b/ | %146
 _ag/f/ e>g cf e>d | cg c'=e f3 A | B_A/G/ Fd/c/ Be/d/ cf/e/ | %149
 d/f/b/a/ b/a/b/a/ b/a/b/a/ c'/b/c'/b/ | (a/c'/b/a/) (b/a/b/a/) (b/a/b/a/) (c'/b/c'/b/) | %151
 (a/A/c/F/) (f/g/f/g/) (f/g/f/g/) (f/g/f/g/) | (f/g/f/g/) (f/g/f/g/) fc/d/ Mef/e/ | d2 z2 z4 | z8 | %155
 z8 | z8 | z (g/4a/4b/) a/b/g/a/ f2 z2 | z/ c/d/A/ B/G/d/B/ fB/4c/4d/ c/d/B/c/ | A2 z2 z4 | %160
 z B/4c/4d/ c/d/B/c/ Ac/d/ ed/c/ | d2 z2 z4 | z8 | z BfA B_A/G/ FB/A/ | %164
 Ge/d/ cf/e/ d/e/f/e/ d/c/B/A/ | G z z e/d/ c/e/d/c/ dc/B/ | A/c/B/A/ B/c/d/e/ f2 B>c | %167
 d/D/G/F/ E/e/f/g/ f3 e- | e>d d>d d>c Pc3/2d/4e/4 | d2 z c- cB[Q:1/4=90] B>B | %170
[Q:1/4=80] A>A[Q:1/4=70] B>B[Q:1/4=60] B>B[Q:1/4=50] A>[Q:1/4=40]A | !fermata!B2 z2 z4 |] %172
V:2
 x8 | x8 | x8 | x8 | x8 | x8 | x8 | x8 | x8 | x8 | x8 | x8 | x8 | x8 | x8 | x8 | x8 | x8 | x8 | %19
 x8 | x8 | x8 | x8 | x8 | x8 | x8 | x8 | x8 | x8 | x8 | x8 | x8 | x8 | x8 | x8 | x8 | x8 | x8 | %38
 x8 | x8 | x8 | x8 | x8 | x8 | x8 | x8 | x8 | x8 | x8 | x8 | x8 | x8 | x8 | x8 | x8 | x8 | x8 | %57
 x8 | x8 | x8 | x8 | x8 | x8 | x8 | x8 | x8 | x8 | x8 | x8 | x8 | x8 | x8 | x8 | x8 | x8 | x8 | %76
 x8 | x8 | x8 | x8 | x8 | x8 | x8 | x8 | x8 | x8 | x8 | x8 | x8 | x8 | x8 | x8 | x8 | x8 | x8 | %95
 x8 | x8 | x8 | x8 | x8 | x8 | x8 | x8 | x8 | x8 | x8 | x8 | x8 | x8 | x8 | x8 | x8 | x8 || %113
[M:4/4] x8 | x8 | x8 | x8 | x8 | x8 | x8 | x8 | x8 | x8 | x8 | x8 | x8 || x8 | x8 | x8 | x8 | x8 | %131
 x8 | x8 | x8 | x8 | x8 | x8 | x8 | x8 | x8 | x8 | x8 | x8 | x8 | x8 | x8 | x8 | x8 | x8 | x8 | %150
 x8 | x8 | x8 | x8 | x8 | x8 | x8 | x8 | x8 | x8 | x8 | x8 | x8 | x8 | x8 | x8 | x8 | x8 | x8 | %169
 z D E2 F2 G>G | F>E D>D G>G F>E | D2 x6 |] %172
V:3
!f! z8 | z8 | z8 | z8 | z8 | z8 | z8 | z8 | z8 | z8 | z8 | z8 | z8 | z8 | z8 | z8 | z8 | %17
 z4 z2 z F/F/ | F2 z2 z4 | z2 z F/F/ F2 z2 | z4 z2 z F | D3/2C/4B,/4 F3 FB>_A | %22
 G B,2 E- (E<D) (F<C) | (D<C) (D<A,) (B,<A,) (B,<F,) | G,G CF D3/2C/4B,/4 F/C/D/E/ | %25
 D/B,/C/D/ B,/C/_A,/B,/ G,/E/D/C/ B,/C/D/=E/ | F/C/A,/B,/ C/D/E/F/ D/E/F/G/ A,/B,/C/D/ | %27
 B,/C/D/E/ F/G/_A/B/ G/=A/B/c/ MB>A | B2 z F D3/2C/4B,/4 F2 | z/ B,/G,/A,/ B,2 z/ C/A,/B,/ C2 | %30
 z/ B,/F,/G,/ A,>C B,/G,/D,/=E,/ F,/F,/B,/_A,/ | G,/G,/C/B,/ B,A,/F/ D3/2C/4B,/4 F2 | %32
 z2 z/ F/B/_A/ G2 z/ G/D/=E/ | F2 z/ C/F/E/ D2 z/ C/F/E/ | DB, B,B, B,/B,/E/E/ E/D/C/D/ | %35
 B,B,, z F D3/2C/4B,/4 F2- | FEEE ED MD>C | CB, B,A, A,G, G,F, | F,E,/D,/ C,F D3/2C/4B,/4 F2 | %39
 z2 z/ B/B/_A/ G/A/G/A/ B/c/B/c/ | A/C/D/E/ F/G/F/E/ D/E/D/E/ D/E/C/D/ | %41
 B,/C/B,/C/ B,/C/B,/D/ G,/B,/C/B,/ MB,>A, | B, z z F D3/2C/4B,/4 F2 | z8 | z8 | z4 z2 z F | %46
 D3/2C/4B,/4 F>F, G,>A, B,>C | A,>B, C>F D>D D>A, | B,>B, B,>B, B,>C A,>F | %49
 D3/2C/4B,/4 F2 z2 z/ D/B,/A,/ | G,/B,/G,/A,/ B,/C/D/=E/ F/C/A,/B,/ C/D/_E/F/ | %51
 D/B,/F,/G,/ A,/B,/C/D/ B,/G,/D,/=E,/ F,/G,/_A,/B,/ | G,G/F/ E/D/C/F/ D3/2C/4B,/4 F2 | %53
 z4 z/ B,/G,/A,/ B,2 | z/ C/A,/B,/ C2 z/ B,/F,/G,/ A,2 | z/ G,/D,/=E,/ F,2 z/ F/_E/D/ C/B,/A,/C/ | %56
 B, z z F D3/2C/4B,/4 F2 | z G B2 z A c2 | z B/F/ A2 z G/D/ F2 | E/F/D/E/ CF D3/2C/4B,/4 F2 | %60
 z2 z/ F,/B, z/ G,/ C z/ B,/ E | z/ D/ C z/ D/ E z/ E/ D z/ D/ C | %62
 z/ C/ B, z/ A,/ B, z/ C/ B, z/ B,/ A, | z/ B,/ F z/ F,/ F z/ G/ F z/ F/ B | %64
 z/ _A/ G z/ G/ B z/ =A/ c z/ C/ E | z/ D/ B, z/ C/ F,[K:bass] z/ D,/ G, z/ D/ D, | %66
 z/ E,/ G, z/ F,/ F,, z2 z/ F,/A,/F,/ | B, z z/ D,/F,/D,/ E, z z/ G,/B,/G,/ | %68
 A, z z/ A,,/C,/A,,/ B,, z z/ F,,/A,,/F,,/ | %69
 G,,/G,/B,/G,/ D/D,/F,/D,/ G,/G,/A,/B,/ F,/F,,/A,,/F,,/ | B,,2 z2 z4 | z8 | z8 | %73
[K:alto] z4 z2 z F | D3/2C/4B,/4 F[K:bass] B,/D,/ E,/G,/E,/G,/ G,,C, | %75
 F,,2 A,,/C,/A,,/C,/ B,,/D,/B,,/D,/ F,,/D,/F,,/D,/ | %76
 G,,/D,/G,,/D,/ D,,/D,/D,,/D,/ E,,/G,/F,/G,/ TF,>F,, | B,,[K:alto]B,/B,/ A,C/C/ B,D/D/ FD,/D,/ | %78
 E,G,/G,/ B,D/D/ FA,/A,/ C[K:bass]A,,/A,,/ | B,,D,/D,/ E,F,,/F,,/ G,,B,,/B,,/ D,D,,/D,,/ | %80
 E,,E,,/E,,/ F,,F,,/F,,/ B,,2 z2 | z B,/B,/ D/D/D,/D,/ E,2 z2 | %82
 z F,/F,/ A,/A,/A,,/A,,/ B,,D,/D,/ F,/F,/F,,/F,,/ | G,,B,,/B,,/ D,/D,/D,,/D,,/ E,,G,/G,/ F,/E,/F, | %84
 B,,/C,/D,/=E,/ F,/G,/A,/F,/[K:alto] D/B,/D/E/ F/G/_A/F/ | %85
 G/E/D/C/ B,/A,/B,/G,/ A,/[K:bass]D,/C,/B,,/ A,,2 | %86
 z/ B,,/A,,/G,,/ F,,2 z/ G,,/F,,/E,,/ D,,F,/E,/ | E,/G,/C,/E,/ F,,2 B,,2 z2 |[K:alto] z8 | z8 | %90
 z8 | z8 | z8 | z8 | z4 z2 (3z z F | (3DB,D (3FF,_A, (3G,GA (3BD=E | (3FA,B, (3CF_E (3DB,D (3FCE | %97
 (3DB,D (3FED (3CDE (3DCF | (3DB,D (3:2:2F2 A, (3:2:1B,3[K:bass] (3z z D, | %99
 (3:2:1E,3 (3z z G, (3:2:1F,3 (3z z A,, | (3:2:1B,,3 (3z z F,, (3:2:1G,,3 (3z z D,, | %101
 (3:2:1E,,3 (3z z F,, (3:2:1B,,3[K:alto] (3z z F | (3DB,D (3:2:2F2 D, (3E,G,A, (3B,A,G, | %103
 (3A,F,A, (3C[K:bass] A,,C, (3B,,D,=E, (3F,F,,A,, | (3G,,B,,G,, (3D,E,F, (3E,F,G, (3F,E,F, | %105
 (3:2:1B,,3 z2 z4 |[K:alto] z8 | z8 | z2 (3z z F (3DB,D (3:2:1F3 | %109
 z2 (3z z B, (3G,E,G, (18:12:6(1:1:6B,/A,/B,/C/D/=E/ | %110
 F2[K:bass] (3z z F, (3D,B,,D, (6:4:6F,/G,/F,/E,/D,/C,/ | %111
 (3B,,G,,B,, (6:4:6D,/E,/D,/C,/B,,/A,,/ (3G,,3/2F,,/E,, (3:2:4F,,F,/E,/F, | B,,2 z2 z4 || %113
[M:4/4] z!mp! ^F,,F,,F,, F,,4 | z G,,B,,D, G,>G,, A,,B,,/C,/ | z B,,D,G, B,>B,, C,D,/E,/ | %116
 z D,F,B, D>D, D,E,/F,/ | z E,G,B, C4 | z C/D/ CB,/A,/ D4- | D2 B,4 MA,>G, | ^F,G,A,G,/F,/ G,3 A, | %121
 B,A, ^F,G, G,3 ^F, | G,2[K:alto] z B, CDCB,- | B,G, MC>B, A,2 z F, | B,A,B,C DC D=E | %125
 FCDE _D2 C2 ||!f! B,2 z2 z4 | z8 | z B,FA, B,_A,/G,/ F,B,/A,/ | %129
 G,E/D/ CF/E/ D/E/F/E/ D/C/B,/_A,/ | G,>G, F,>F B,>C DB, | EE, _A,F, B,3 D, | %132
 E,/F,/G,/F,/ E,/F,/D,/E,/ C,2 z2 |[K:bass] z F,B,D, F,E,/D,/ C,F,/E,/ | %134
 D,B,/A,/ G,C/B,/ A,/B,/C/B,/ A,/G,/F,/E,/ | D,>E, F,>D, E,>E, D,>D, | C,2 F,A, B,A, G,2 | %137
 F,>D, B,,B, F,>G, A,F, | B,B,, E,C, F,3 A, | B,/C/D/C/ B,/A,/G,/F,/ E,/F,/E,/D,/ C,B,,/_A,,/ | %140
 G,,_A,, B,,2 E,,2 z G, | _A,/B,/C/B,/ A,/B,/G,/A,/ F,>E, _D,>D, | C,B,, C,2 F,,2 z2 | %143
 z4 z E,B,D, | F,E,/D,/ C,F,/E,/ D,B,, E,3/2D,/4C,/4 | B,,C, D,2 G,,>G, CE, | %146
 F,E,/D,/ C,C _A,F, G,G,, | C,2 z2 z A,DF, | G,F,/E,/ D,B,, E,C, F,F,, | B,,2 z2 z4 |[K:alto] z8 | %151
 z8 | z8 | z/ F,/B,/A,/ (B,/A,/B,/A,/) (B,/A,/B,/A,/) C/B,/C/B,/ | %154
 (A,/C/B,/A,/) (B,/C/B,/C/) (B,/C/B,/C/) (B,/C/B,/C/) | %155
 (A,/C/B,/A,/) (F/G/F/G/) (F/G/F/G/) (F/G/F/G/) | (F/G/F/G/) (F/G/F/G/) FC/D/ MEF/E/ | %157
 D2 z2 z (B,/4C/4D/) C/D/B,/C/ | A,2 z2 z4 | z C/D/ ED/C/ DG,/4A,/4B,/ A,/B,/G,/A,/ | %160
 D,(D/4E/4F/) E/F/D/E/ CA,/B,/ CB,/A,/ | B,F BD FE/D/ CF/E/ | DB/A/ Gc/B/ A/B/c/B/ A/G/F/E/ | %163
 D2 z F B,>C DB, | EC FF, B,D FD | E/F/G/F/ E/D/C/B,/ A,/C/B,/A,/ B,/C/D/=E/ | %166
 F>[K:bass]F, G,F,/E,/ D,/F,/E,/D,/ E,/F,/G,/A,/ | B,B,, z/ C,/D,/E,/ D,/D/C/D/ G,/C/C/B,/ | %168
 A,>A, B,>B, B,>B, B,>A, | B,B,, C,>C, D,>D, E,>E, | F,>F, G,>G, E,>E, F,>F, | %171
 !fermata!B,,2 z2 z4 |] %172
V:4
!f! B,,B,"^6" PA,2 B,2"^6" D,2 | E,2 G,2 F,2"^6" A,,2 | B,,2"^6" F,,2 G,,2"^6" D,,2 | %3
"^6\n5" E,,2 F,,2 B,,B,"^6" PA,2 | B,2"^6" D,2 E,2 G,2 | F,2"^6" A,,2 B,,2"^6" F,,2 | %6
 G,,2"^6" D,,2"^6\n5" E,,2 F,,2 | B,,B, PA,2 B,2 D,2 | E,2 G,2 F,2"^6" A,,2 | %9
 B,,2 F,,2 G,,2"^6" D,,2 | E,,2 F,,2 B,,B, PA,2 | B,2"^(6)" D,2 E,2 G,2 | %12
 F,2"^(6)" A,,2 B,,2 F,,2 | G,,2 D,,2 E,,2 F,,2 | B,,B, PA,2 B,2"^6" D,2 | E,2 G,2 F,2"^6" A,,2 | %16
 B,,2"^6" F,,2 G,,2"^6" D,,2 |"^6\n5" E,,2 F,,2 B,,B,"^6" PA,2 | B,2"^6" D,2 E,2 G,2 | %19
 F,2"^6" A,,2 B,,2"^6" F,,2 | G,,2"^6" D,,2"^6\n5" E,,2 F,,2 | B,,B, PA,2 B,2 D,2 | %22
 E,2 G,2 F,2"^6" A,,2 | B,,2 F,,2 G,,2"^6" D,,2 | E,,2 F,,2 B,,B, PA,2 | B,2 D,2 E,2 G,2 | %26
 F,2"^6" A,,2 B,,2 F,,2 | G,,2 D,,2 E,,2 F,,2 | B,,B, PA,2 B,2 D,2 | E,2 G,2 F,2 A,,2 | %30
 B,,2 F,,2 G,,2 D,,2 | E,,2 F,,2 B,,B, PA,2 | B,2 D,2 E,2 G,2 | F,2 A,,2 B,,2 F,,2 | %34
 G,,2 D,,2 E,,2 F,,2 | B,,B, PA,2 B,2 D,2 | E,2"^(6)" G,2 F,2 A,,2 | B,,2 F,,2 G,,2 D,,2 | %38
 E,,2 F,,2 B,,B, PA,2 | B,2 D,2 E,2"^(6)" G,2 | F,2 A,,2 B,,2 F,,2 | G,,2 D,,2 E,,2 F,,2 | %42
 B,,B, PA,2 B,2 D,2 | E,2 G,2 F,2 A,,2 | B,,2 F,,2 G,,2 D,,2 | E,,2 F,,2 B,,B, PA,2 | %46
 B,2 D,2 E,2 G,2 | F,2 A,,2 B,,2 F,,2 | G,,2 D,,2 E,,2 F,,2 | B,,B, PA,2 B,2 D,2 | %50
 E,2 G,2 F,2 A,,2 | B,,2 F,,2 G,,2 D,,2 | E,,2 F,,2 B,,B, PA,2 | B,2 D,2 E,2 G,2 | %54
 F,2 A,,2 B,,2 F,,2 | G,,2 D,,2 E,,2 F,,2 | B,,B, PA,2 B,2 D,2 | E,2 G,2 F,2 A,,2 | %58
 B,,2 F,,2 G,,2 D,,2 | E,,2 F,,2 B,,B, PA,2 | B,2 D,2 E,2"^(6)" G,2 | F,2 A,,2 B,,2 F,,2 | %62
 G,,2 D,,2 E,,2 F,,2 | B,,B, PA,2 B,2 D,2 | E,2"^(6)" G,2 F,2 A,,2 | B,,2 F,,2 G,,2 D,,2 | %66
 E,,2 F,,2 B,,B, PA,2 | B,2 D,2 E,2 G,2 | F,2 A,,2 B,,2 F,,2 | G,,2 D,,2 E,,2 F,,2 | %70
 B,,B, PA,2 B,2 D,2 | E,2 G,2 F,2 A,,2 | B,,2 F,,2 G,,2 D,,2 | E,,2 F,,2 B,,B, PA,2 | %74
 B,2 D,2 E,2 G,2 | F,2 A,,2 B,,2 F,,2 | G,,2 D,,2 E,,2 F,,2 | B,,B, PA,2 B,2 D,2 | %78
 E,2 G,2 F,2 A,,2 | B,,2 F,,2 G,,2 D,,2 | E,,2 F,,2 B,,B, PA,2 | B,2 D,2 E,2 G,2 | %82
 F,2 A,,2 B,,2 F,,2 | G,,2 D,,2 E,,2 F,,2 | B,,B, PA,2 B,2 D,2 | E,2 G,2 F,2 A,,2 | %86
 B,,2 F,,2 G,,2 D,,2 | E,,2 F,,2 B,,B, PA,2 | B,2 D,2"^(6)" E,2"^(6)" G,2 | %89
"^(6)" F,2 A,,2 B,,2 F,,2 | G,,2 D,,2 E,,2 F,,2 | B,,B, PA,2 B,2 D,2 | E,2 G,2 F,2 A,,2 | %93
 B,,2 F,,2 G,,2 D,,2 | E,,2 F,,2 B,,B, PA,2 | B,2 D,2 E,2 G,2 | F,2 A,,2 B,,2 F,,2 | %97
 G,,2 D,,2 E,,2 F,,2 | B,,B, PA,2 B,2 D,2 | E,2 G,2 F,2 A,,2 | B,,2 F,,2 G,,2 D,,2 | %101
 E,,2 F,,2 B,,B, PA,2 | B,2 D,2 E,2 G,2 | F,2 A,,2 B,,2 F,,2 | G,,2 D,,2 E,,2 F,,2 | %105
 B,,B, PA,2 B,2 D,2 | E,2 G,2 F,2 A,,2 | B,,2 F,,2 G,,2 D,,2 | E,,2 F,,2 B,,B, PA,2 | %109
 B,2 D,2 E,2 G,2 | F,2 A,,2 B,,2 F,,2 | G,,2 D,,2 E,,2 F,,2 | B,,2 z2 z4 ||[M:4/4]!mp!"^6" ^F,,8 | %114
 G,,6"^6#" A,,2 |"^6" B,,6"^6" C,2 |"^6" D,6 D,2 | E,4-"^6" E,2 =E,2 | F,4-"^6" F,2 ^F,2 | %119
 G,4"^7         6    5" C,4- |"^4#\n2" C,4"^6" B,,3"^6" C, | %121
"^6                   6   6              6    5\n#                    4   4              4    #" D,8 | %122
 G,,2 z"^6" G, A,2"^4     3" B,2 |"^5           6    5" E,4-"^6\n4" E,2"^6" D,2 | %124
"^7   6      5    4" G,4"^5               6#" G,4 | %125
"^5          6    7     6\n\n          5         8\n3          4    5     5          4" F,8 || %126
!f! B,,2 z B,,"^6" D,E, F,"^6"A,, | B,,"^7"G,,"^4" C,C,, E,,4 | B,,[K:tenor] B,F"^6"A, B,2 F,B, | %129
 G,E CF D>C B,>_A, | G,2 F,F B,3 B, | EE, _A,F, B,3"^6" D, | E,3 D, C,4 | %133
[K:bass] F,2 B,"^6"D, F,E,/D,/ C,F, | D,B,"^7" G,C"^6" A,>G, F,>E, | D,3"^6" D, E,2"^6" D,2 | %136
 C,2 F,"^6"A, B,"^6"A,"^7        6#" G,2 | F,>D, B,,B, F,>"^(6)"G,"^(6)" A,F, | %138
 B,B,, E,C,"^6?" F,3"^(6)" A, | B,>A, G,>F, E,>D, C,B,,/_A,,/ | %140
"^6" G,,_A,,"^4   3" B,,2 E,,2 z"^6" G, | _A,3"^(6)" G, F,2"^7  6" _D,2 | %142
"^7\n" C,"^7\n\n5"B,,"^6\n\n   5\n4    " C,2 F,,3 F, | G,F,/E,/"^6" D,2 E,2 B,,2- | %144
 B,,2"^6" A,,2 B,,2 E,2 |"^6" B,,C,"^4#" D,2 G,,>G, C"^6"E, | %146
 F,E,/D,/ C,C _A,F,"^6\n4" G,"^5\n"G,, | C,3 C,"^6" A,,A, DF, | %148
 G,F,/E,/"^6" D,B,, E,"^7"C,"^4" F,"^3"F,, | B,,2"^7\n5" C,2"^6\n3" D,2"^6       5\n3" E,2 | %150
 F,2 G,2"^6" D,2 =E,2 | F,2"^6" A,,2 B,,2"^4" C,2 |"^6" D,2"^9\n7" E,2"^8\n5\n4" F,2"^7\n8" F,,2 | %153
 B,,2"^7\n8" C,2"^6\n3" D,2"^6    5\n3" E,2 | F,2 G,2"^6" D,2 =E,2 | F,2"^6" A,,2 B,,2 C,2 | %156
 D,2 E,2"^4" F,2"^3" F,,2 | B,,2"^6  5" C,2 D,2"^6  5" E,2 | F,2 G,2"^6" D,2"^6  5" =E,2 | %159
 F,2"^6     5" A,,2"^5     6" B,,2"^6  5" C,2 | D,2"^6  5" E,2 F,3/2E,/4D,/4 C,F, | %161
 B,,2 z B, DC/B,/"^6" A,F, | B,"^7"G,"^4" CC, F,"^6"=E, F,D, | z G,DF, G,F,/E,/ D,G, | %164
 E,/[K:tenor]E/C FF, B,2 z"^6" D | E>D C>B,[K:bass]"^6" A,2 B,2 | F,2 G,2"^6" D,2 E,2 | %167
 B,,2 C,2 D,2"^9   8" E,2 |"^7" F,2 G,2"^7     6\n5" E,2"^5        3\n4" F,2 | %169
 B,,2"^6     5" C,2"^7     6" D,2 E,2 | F,2 G,2"^\n5" E,2 F,2 | !fermata!B,,2 z2 z4 |] %172
V:5
"^Vivace.""^9. Volte."!f! d2 Pc2 d2 B2 | G2 B2 c2 Pc2 | d2 A2 B2 [DFB]2 | [CGB]2 [CFA]2 [DFB]2 c2 | %4
 d2 B2 G2 B2 | c2 Pc2 d2 A2 | B2 [DFB]2 [CGB]2 [CFA]2 | [DFB]2 [Fc]2 d2 B2 | %8
 G2 [DB]2 [Fc]2 P[F-c]2 | d2 A2 B2 [DFB]2 | [CGB]2 [CFA]2 [DFB]2 [F-c]2 | [Fd]2 [FB]2 [EG]2 [DB]2 | %12
 [Fc]2 P[F-c]2 [Fd]2 [D-A]2 | [DB]2 [DFB]2 [CGB]2 [CFA]2 | [DFB]2 [Fc]2 [Fd]2 [FB]2 | %15
 [EG]2 [DB]2 [Fc]2 P[F-c]2 | [Fd]2 [D-A]2 [DB]2 [DFB]2 | [CGB]2 [CFA]2 [DFB]2 [F-c]2 | %18
 [Fd]2 [FB]2 [EG]2 [DB]2 | [Fc]2 P[F-c]2 [Fd]2 [D-A]2 | [DB]2 [DFB]2 [CGB]2 [CFA]2 | %21
 [DFB]2 [Fc]2 [Fd]2 [FB]2 | [EG]2 [DB]2 [Fc]2 P[F-c]2 | [Fd]2 [D-A]2 [DB]2 [DFB]2 | %24
 [CGB]2 [CFA]2 [DFB]2 [Fc]2 | [Fd]2 [FB]2 [EG]2 [DB]2 | [Fc]2 Pc2 d2 A2 | %27
 [DB]2 [DFB]2 [CGB]2 [CFA]2 | [DFB]2 [F-c]2 [Fd]2 [FB]2 | [EG]2 [DB]2 [Fc]2 P[F-c]2 | %30
 [Fd]2 [FA]2 [DB]2 [DFB]2 | [CGB]2 [CFA]2 [DFB]2 [Fc]2 | [Fd]2 [FB]2 [EG]2 [DB]2 | %33
 [Fc]2 P[F-c]2 [Fd]2 [FA]2 | [DB]2 [FB]2 [CG]2 [CF]2 | [B,DF]2 [CF-]2 [B,F]2 [FB]2 | %36
 [EG]2 [EG]2 [FA]2 P[Fc]2 | [Fd]2 [FA]2 [DB]2 [FB]2 | [CG]2 [CF-]2 [DF]2 [CF]2 | %39
 [DF]2 [FB]2 [EG]2 [EB]2 | [FA]2 MF2- F2 [D-F]2 | D2 [DFB]2 [CGB]2 [CFA]2 | %42
 [DFB]2 [Fc]2 [Fd]2 [FB]2 | [EG]2 [DB]2 [Fc]2 P[F-c]2 | [Fd]2 P[D-A]2 [DB]2 [DFB]2 | %45
 [CGB]2 [CFA]2 [DFB]2 P[F-c]2 | [Fd]2 [FB]2 [EG]2 [DB]2 | [Fc]2 PM[F-c]2 [Fd]2 P[D-A]2 | %48
 [DB]2 [DFB]2 [CGB]2 [CFA]2 | [DFB]2 [F-c]2 [Fd]2 [FB]2 | [EG]2 [DB]2 [Fc]2 P[F-c]2 | %51
 [Fd]2 P[D-A]2 [DB]2 [DFB]2 | [CGB]2 [CFA]2 [DFB]2 P[Fc]2 | [Fd]2 [FB]2 [EG]2 [DB]2 | %54
 [Fc]2 M[F-c]2 [Fd]2 P[D-A]2 | [DB]2 [DFB]2 [CGB]2 [CFA]2 | [DFB]2 [Fc]2 [Fd]2 [FB]2 | %57
 [EG]2 [DB]2 [Fc]2 P[F-c]2 | [Fd]2 P[D-A]2 [DB]2 [B,FB]2 | [B,CG]2 [A,CF]2 [B,DF]2 [CF]2 | %60
 [DF]2 [FB]2 [EG]2 [EG]2 | [FA]2 M[F-c]2 [Fd]2 P[D-A]2 | [DB]2 [DFB]2 [CGB]2 [CFA]2 | %63
 [DFB]2 [Fc]2 [Fd]2 [FB]2 | [EG]2 [EB]2 [FA]2 P[F-c]2 | [Fd]2 P[D-A]2 [DB]2 [DFB]2 | %66
 [CGB]2 [FA]2 [DFB]2 [Fc]2 | [Fd]2 [FB]2 [EG]2 [DB]2 | [Fc]2 P[F-c]2 [Fd]2 P[D-A]2 | %69
 [DB]2 [DFB]2 [CGB]2 [CFA]2 | [DFB]2 P[Fc]2 [Fd]2 [FB]2 | [EG]2 [DB]2 [Fc]2 P[F-c]2 | %72
 [Fd]2 P[FA]2 [DB]2 [DFB]2 | [CGB]2 [CFA]2 [DFB]2 [Fc]2 | [Fd]2 [FB]2 G2 [DB]2 | %75
 [Fc]2 P[F-c]2 [Fd]2 P[D-A]2 | [DB]2 [DFB]2 [CGB]2 [CFA]2 | [DFB]2 P[Fc]2 [Fd]2 [FB]2 | %78
 [EG]2 [DB]2 [Fc]2 P[F-c]2 | [Fd]2 P[D-A]2 [DB]2 [DFB]2 | [CGB]2 [CFA]2 [DFB]2 [Fc]2 | %81
 [Fd]2 [FB]2 [EG]2 [DB]2 | [Fc]2 P[F-c]2 [Fd]2 P[D-A]2 | [DB]2 [DFB]2 [CGB-]2 BA | %84
 [DFB]2 [Fc]2 [Fd]2 [FB]2 | [EG]2 [DB]2 [Fc]2 P[F-c]2 | [Fd]2 P[D-A]2 [DB]2 [DFB]2 | %87
 [CGB]2 [CFA]2 [DFB]2 [Fc]2 | [Fd]2 [FB]2 [EG]2 [DB]2 | [Fc]2 P[F-c]2 [Fd]2 P[D-A]2 | %90
 [DB]2 [DFB]2 [CGB]2 [CFA]2 | [DFB]2 [Fc]2 [Fd]2 [FB]2 | [EG]2 [DB]2 [Fc]2 P[F-c]2 | %93
 [Fd]2 P[D-A]2 [DB]2 [DFB]2 | [CGB]2 [CFA]2 [DFB]2 [Fc]2 | [Fd]2 [FB]2 [EG]2 [DB]2 | %96
 [Fc]2 P[F-c]2 [Fd]2 P[D-A]2 | [DB]2 [DFB]2 [CGB]2 [CFA]2 | [DFB]2 [Fc]2 [Fd]2 [FB]2 | %99
 [EG]2 [DB]2 [Fc]2 P[F-c]2 | [Fd]2 P[D-A]2 [DB]2 [DFB]2 | [CGB]2 [CFA]2 [DFB]2 [F-c]2 | %102
 [Fd]2 [FB]2 [EG]2 [DB]2 | [Fc]2 P[F-c]2 [Fd]2 P[FA]2 | [DB]2 [DFB]2 [CGB]2 [CFA]2 | %105
 [DFB]2 [Fc]2 [Fd]2 [FB]2 | [EG]2 [DB]2 [Fc]2 P[F-c]2 | [Fd]2 P[FA]2 [DB]2 [DFB]2 | %108
 [CGB]2 [CFA]2 [DFB]2 [Fc]2 | [Fd]2 [FB]2 [EG]2 [DB]2 | [Fc]2 P[F-c]2 [Fd]2 P[D-A]2 | %111
 [DB]2 [DFB]2 [CGB-]2 B>A | [DFB]2 z2 z4 ||[M:4/4]!mp!"^Lento." [DAd]8 | [DGB]6 [C^Fc]2 | %115
 [DGB]6 [CEA]2 | [B,FB]6 [B,FB]2 | [B,EG]4 [CGc]4 | [CFA]4 [DAd]2 [Ac]2 | [GB]4 B2 AG | %120
 [D^F]4 [DG]3 [EA] | ^F3 G [B,DG]2- [B,DG][A,F] | [B,DG]2 z [Be] e2- ed | e4 [FAc]2 [F-B]2 | B8 | %125
 A2 Bc- cB- BA ||!f!"^Allegro." [=DB]2 z [DB] B2 Ac | dB G2 PA4 | d3 c d2 cd | e2- ec [FB]2 [Fd]2 | %130
 [Be]2 [Af]2 [Bd]3 [Bd] | [Ge]2 [_Ac]2 [Fd]3 [FB] | [EG]4 [EGc]4 | A2 B2 [FA]2 [Ec][FA] | %134
 Bd BG c4 | [FB]3 [FB] [GB]2 [FB]2 | [Ec]2 Ac dc B2 | A2 BD FE FA | B2 Gc [FA]3 [Fc] | %139
 [Fc]2 [GB]2- [GB]2 [E_A]2 | Bc F2 G2 z [EB] | [Ec]3 [Be] [_Ac-]2 cB- | B_A- AG A4 | %143
 [EB][C_A] [B,-FB]2 [B,EG]2 [DB]2- | [DB]2 [Fc]2 [Fd]2 [GB]2 | dc G^F [G=B]2 c2 | _A2 c2- c2 c=B | %147
 [Gc]4 c4 | B2- Bd [GB][EB-] BA | B6 cB | A2 B4 c2 | A2 c2 d2 A2 | B6 A2 | B6 cB | A2 B6 | %155
 A2 c2 d2 e2 | f2 e2 c4 | B2 AG F2 cB | [FA]2 [DB]2 [FB]2 cB | A2 F_E DG AG | F2 cB A2 cA | %161
 [DB]2 z [DB] [FB]2 [Fc]2 | dB G2 Ac [FA]2 | z [GB] [FA]2 [DB-]2 B2 | Be c2 [Fd]2 z [FB] | %165
 B2 e2 c2 d2 | A2 B2 B4 | d2 e2 f2- fe- | e2 d2- dc c2 | [FBd]2 AG F2 G2 | %170
 [CF]2 [B,D]2 [B,EG]2 [A,CF]2 | !fermata![B,DF]2 z2 z4 |] %172
V:6
 F4 F4 | E2 D2 F2 F2- | F2 D4 x2 | x6 F2 | F4 E2 D2 | F4- F2 D2- | D2 x6 | x4 F4 | E2 x6 | %9
 F2 D4 x2 | x8 | x8 | x8 | x4 z4 | x8 | x8 | x8 | z4 x4 | x4 z4 | x8 | x4 z4 | x8 | x8 | x8 | %24
 z4 x4 | x4 z4 | x2 F4 D2- | x4 z4 | x8 | x8 | x8 | z4 x4 | x4 z4 | x8 | x2 B,2 B,2- B,A, | x8 | %36
 z4 x4 | x6 B,2 | B,2 B,PA, B,2 x2 | x4 z4 | x4 D2 x2 | [G,B,]2 x6 | x4 z4 | z4 x4 | x8 | x8 | %46
 z4 z4 | x8 | x8 | x4 z4 | z4 x4 | x8 | x8 | z4 z4 | x8 | x8 | x4 z4 | z4 x4 | x8 | x8 | x4 z4 | %61
 x8 | x8 | x4 z4 | z4 x4 | x8 | x2 DC x4 | z4 z4 | x8 | x8 | x4 z4 | z4 x4 | x8 | x8 | z4 G2 x2 | %75
 x8 | x8 | x8 | z4 x4 | x8 | x8 | x8 | x8 | x6 [CF]2 | x8 | x8 | x8 | x8 | x8 | x8 | x8 | x8 | x8 | %93
 x8 | x8 | x8 | x8 | x8 | x8 | x8 | x8 | x8 | x8 | x8 | x8 | x8 | x8 | x8 | x8 | x8 | x8 | %111
 x6 [CF]2 | x8 ||[M:4/4] x8 | x8 | x8 | x8 | x8 | x8 | x4 [EG]2 [CE]2 | x8 | D4 x4 | x4 c2 F2 | %123
 G4 x4 | FEDC B,2 D=E | F8 || x4 FG F2 | F2- F=E F4 | F2 AF F2 _AF | BG- GA x4 | x8 | x8 | x8 | %133
 F2 DF x4 | F2- F=E F2 A2 | x8 | x2 F2 F2- F=E | F2 DD A,B, C2 | D2 E2 x4 | x8 | E2- ED E2 x2 | %141
 x6 F2 | =EF- F=E F4 | x8 | x8 | DE D2 D2 EG | F2 E2 F_A ED | =E4 FG FA | G2 F2 x2 C2 | %149
 D2 E2 F2 G2 | F2 D2 F2 G2 | F2 F6- | x2 D2 C4 | D2 E2 F2 G2 | F2 D2 F2 G2 | F4- F4- | %156
 F2 [GB-]2 F4 | D2 E2 F2 G2 | x6 G2 | F2 C2 B,D E2 | D2 G2 F2 EF | x8 | F2- F=E F[CG] CD | x6 FD | %164
 G2 A2 x4 | G4 F4 | F2 D2 F2 G2 | F6 G2 | A2 B2 BG F2 | x2 E2 F2 E2 | x8 | x8 |] %172
V:7
 B,,B, PA,2 B,2 [D,B,]2 | [E,B,]2 [G,B,]2 [F,A,]2 C2 | [B,,B,]2 F,,2 G,,2 D,2 | %3
 E,2 F,2 B,,B, PA,2 | B,2 [D,B,]2 [E,B,]2 [G,B,]2 | [F,A,]2 C2 [B,,B,]2 F,,2 | G,,2 D,2 E,2 F,2 | %7
 B,,B, PA,2 B,2 [D,B,]2 | [E,B,]2 [G,B,]2 [F,A,]2 C2 | [B,,B,]2 F,,2 G,,2 D,2 | %10
 E,2 F,2 B,,B, PA,2 | B,2 [D,B,]2 [E,B,]2 [G,B,]2 | [F,A,]2 C2 [B,,B,]2 F,,2 | G,,2 D,2 E,2 F,2 | %14
 B,,B, PA,2 B,2 [D,B,]2 | [E,B,]2 [G,B,]2 [F,A,]2 C2 | [B,,B,]2 F,,2 G,,2 D,,2 | %17
 E,,2 F,,2 B,,B, PA,2 | B,2 [D,B,]2 [E,B,]2 [G,B,]2 | [F,A,]2 C2 [B,,B,]2 F,,2 | %20
 G,,2 D,,2 E,,2 F,,2 | B,,B, PA,2 B,2 [D,B,]2 | [E,B,]2 [G,B,]2 [F,A,]2 C2 | %23
 [B,,B,]2 F,,2 G,,2 D,,2 | E,,2 F,,2 B,,B, PA,2 | B,2 [D,B,]2 [E,B,]2 [G,B,]2 | %26
 [F,A,]2 C2 [B,,B,]2 F,,2 | G,,2 D,,2 E,,2 F,,2 | B,,B, PA,2 B,2 [D,B,]2 | %29
 [E,B,]2 [G,B,]2 [F,A,]2 C2 | [B,,B,]2 F,,2 G,,2 D,,2 | E,2 F,2 B,,B, PA,2 | B,2 D,2 E,2 G,2 | %33
 F,2 A,,2 B,,2 F,,2 | G,,2 D,,2 E,,2 F,,2 | B,,B, PA,2 B,2 [D,B,]2 | [E,B,]2 [G,B,]2 [F,A,]2 C2 | %37
 [B,,B,]2 F,,2 G,,2 D,,2 | E,,2 F,,2 B,,B, PA,2 | B,2 [D,B,]2 [E,B,]2 [G,B,]2 | %40
 [F,C]2 C2 [B,,B,]2 [F,,A,]2 | G,,2 D,,2 E,,2 F,,2 | B,,B, PA,2 B,2 [D,B,]2 | %43
 [E,B,]2 [G,B,]2 [F,A,]2 C2 | [B,,B,]2 F,,2 G,,2 D,,2 | E,,2 F,,2 B,,B, PA,2 | %46
 B,2 [D,B,]2 [E,B,]2 [G,B,]2 | [F,A,]2 C2 [B,,B,]2 F,,2 | G,,2 D,,2 E,,2 F,,2 | %49
 B,,B, PA,2 B,2 [D,B,]2 | [E,B,]2 [G,B,]2 [F,A,]2 C2 | [B,,B,]2 F,,2 G,,2 D,,2 | %52
 E,,2 F,,2 B,,B, PA,2 | B,2 [D,B,]2 [E,B,]2 [G,B,]2 | [F,A,]2 C2 [B,,B,]2 F,,2 | %55
 G,,2 D,,2 E,,2 F,,2 | B,,B, PA,2 B,2 [D,B,]2 | [E,B,]2 [G,B,]2 [F,A,]2 C2 | %58
 [B,,B,]2 F,,2 G,,2 D,,2 | E,,2 F,,2 B,,B, PA,2 | B,2 [D,B,]2 [E,B,]2 [G,B,]2 | %61
 [F,A,]2 C2 [B,,B,]2 F,,2 | G,,2 D,,2 E,,2 F,,2 | B,,B, PA,2 B,2 [D,B,]2 | %64
 [E,B,]2 [G,B,]2 [F,C]2 C2 | [B,,B,]2 F,,2 G,,2 D,,2 | E,,2 F,,2 B,,B, PA,2 | %67
 B,2 [D,B,]2 [E,B,]2 [G,B,]2 | [F,A,]2 C2 [B,,B,]2 F,,2 | G,,2 D,,2 E,,2 F,,2 | %70
 B,,B, PA,2 B,2 [D,B,]2 | [E,B,]2 [G,B,]2 [F,A,]2 C2 | [B,,B,]2 F,,2 G,,2 D,,2 | %73
 E,,2 F,,2 B,,B, PA,2 | B,2 [D,B,]2 [E,B,]2 [G,B,]2 | [F,A,]2 C2 [B,,B,]2 F,,2 | %76
 G,,2 D,,2 E,,2 F,,2 | B,,B, PA,2 B,2 [D,B,]2 | [E,B,]2 [G,B,]2 [F,A,]2 C2 | %79
 [B,,B,]2 F,,2 G,,2 D,,2 | E,,2 F,,2 B,,B, PA,2 | B,2 [D,B,]2 [E,B,]2 [G,B,]2 | %82
 [F,A,]2 C2 [B,,B,]2 F,,2 | G,,2 D,,2 E,,2 F,,2 | B,,B, PA,2 B,2 [D,B,]2 | %85
 [E,B,]2 [G,B,]2 [F,A,]2 C2 | [B,,B,]2 F,,2 G,,2 D,,2 | E,,2 F,,2 B,,B, PA,2 | B,2 D,2 E,2 G,2 | %89
 F,2 C2 [B,,B,]2 F,,2 | G,,2 D,,2 E,,2 F,,2 | B,,B, PA,2 B,2 [D,B,]2 | [E,B,]2 [G,B,]2 [F,A,]2 C2 | %93
 [B,,B,]2 F,,2 G,,2 D,,2 | E,,2 F,,2 B,,B, PA,2 | B,2 [D,B,]2 [E,B,]2 [G,B,]2 | %96
 [F,A,]2 C2 [B,,B,]2 F,,2 | G,,2 D,,2 E,,2 F,,2 | B,,B, PA,2 B,2 D,2 | [E,B,]2 [G,B,]2 [F,A,]2 C2 | %100
 [B,,B,]2 F,,2 G,,2 D,,2 | E,,2 F,,2 B,,B, PA,2 | B,2 [D,B,]2 [E,B,]2 [G,B,]2 | %103
 [F,A,]2 C2 [B,,B,]2 F,,2 | G,,2 D,,2 E,,2 F,,2 | B,,B, PA,2 B,2 [D,B,]2 | %106
 [E,B,]2 [G,B,]2 [F,A,]2 C2 | [B,,B,]2 F,,2 G,,2 D,,2 | E,,2 F,,2 B,,B, PA,2 | %109
 B,2 [D,B,]2 [E,B,]2 [G,B,]2 | [F,A,]2 C2 [B,,B,]2 F,,2 | G,,2 D,,2 E,,2 F,,2 | B,,2 z2 z4 || %113
[M:4/4] ^F,,8 | G,,6 A,,2 | B,,6 C,2 | D,6 D,2 | E,4- E,2 =E,2 | F,4- F,2 ^F,2 | G,4 C,4- | %120
 C,4 B,,3 C, | D,8 | G,,2 z G, A,2 B,2 | E,4- E,2 D,2 | G,4 G,4 | F,8 || B,,2 z B,, D,E, F,A,, | %127
 B,,G,, C,C,, E,,4 | B,, B,FA, B,2 F,B, | G,ECF D>C B,>_A, | G,2 F,F B,3 B, | EE, _A,F, B,3 D, | %132
 E,3 D, C,4 | F,2 B,D, F,E,/D,/ C,F, | D,B, G,C A,>G, F,>_E, | D,3 D, E,2 D,2 | C,2 F,A, B,A, G,2 | %137
 F,>D, B,,B, F,>G, A,F, | B,B,, E,C, F,3 A, | B,>A, G,>F, E,>D, C,B,,/_A,,/ | %140
 G,,_A,, B,,2 E,,2 z G, | _A,3 G, F,2 _D,2 | C,=B,, C,2 F,,3 F, | G,F,/E,/ D,2 E,2 B,,2- | %144
 B,,2 A,,2 B,,2 E,2 | B,,C, D,2 G,,>G, CE, | F,E,/D,/ C,C _A,F, G,G,, | C,3 C, A,,A, DF, | %148
 G,F,/E,/ D,B,, E,C, F,F,, | B,,2 C,2 D,2 E,2 | F,2 G,2 D,2 =E,2 | F,2 A,,2 B,,2 C,2 | %152
 D,2 E,2 F,2 F,,2 | B,,2 C,2 D,2 E,2 | F,2 G,2 D,2 =E,2 | F,2 A,,2 B,,2 C,2 | D,2 E,2 F,2 F,,2 | %157
 B,,2 C,2 D,2 E,2 | F,2 G,2 D,2 =E,2 | F,2 A,,2 B,,2 C,2 | D,2 E,2 F,3/2E,/4D,/4 C,F, | %161
 B,,2 z B, DC/B,/ A,F, | B,G, CC, F,=E, F,D, | z G,DF, G,F,/E,/ D,G, | E,/E/C FF, B,2 z D | %165
 E>D C>B, A,2 B,2 | F,2 G,2 D,2 E,2 | B,,2 C,2 D,2 E,2 | F,2 G,2 E,2 F,2 | B,,2 C,2 D,2 E,2 | %170
 F,2 G,2 E,2 F,2 | !fermata!B,,2 z2 z4 |] %172
V:8
 x8 | x6 A,,2 | x8 | x8 | x8 | x2 A,,2 x4 | x8 | x8 | x6 A,,2 | x8 | x8 | x8 | x2 A,,2 x4 | x8 | %14
 x8 | x6 A,,2 | x8 | x8 | x8 | x2 A,,2 x4 | x8 | x8 | x6 A,,2 | x8 | x8 | x8 | x2 A,,2 x4 | x8 | %28
 x8 | x6 A,,2 | x8 | x8 | x8 | x8 | x8 | x8 | x6 A,,2 | x8 | x8 | x8 | x2 A,,2 x4 | x8 | x8 | %43
 x6 A,,2 | x8 | x8 | x8 | x2 A,,2 x4 | x8 | x8 | x6 A,,2 | x8 | x8 | x8 | x2 A,,2 x4 | x8 | x8 | %57
 x6 A,,2 | x8 | x8 | x8 | x2 A,,2 x4 | x8 | x8 | x6 A,,2 | x8 | x8 | x8 | x2 A,,2 x4 | x8 | x8 | %71
 x6 A,,2 | x8 | x8 | x8 | x2 A,,2 x4 | x8 | x8 | x6 A,,2 | x8 | x8 | x8 | x2 A,,2 x4 | x4 z4 | x8 | %85
 x6 A,,2 | x8 | x8 | x8 | x2 A,,2 x4 | x8 | x8 | x6 A,,2 | x8 | x8 | x8 | x2 A,,2 x4 | x8 | x8 | %99
 x6 A,,2 | x2 C2 B,2 x2 | x8 | x8 | x2 A,,2 x4 | x8 | x8 | x6 A,,2 | x8 | x8 | x8 | x2 A,,2 x4 | %111
 x8 | x8 ||[M:4/4] x8 | x8 | x8 | x8 | x8 | x8 | D4 x4 | A,4 G,3 C | B,4 x4 | x8 | x8 | x8 | x8 || %126
 x8 | x8 | x8 | x8 | x8 | x8 | x8 | x8 | x8 | x8 | x8 | x8 | x8 | x8 | x8 | x8 | x8 | x8 | x8 | %145
 x8 | x8 | x8 | x8 | x8 | x8 | x8 | x8 | x8 | x8 | x8 | x8 | x8 | x8 | x8 | x8 | x8 | x8 | x8 | %164
 x8 | x8 | x8 | x8 | x8 | x2 C2- CB, B,2 | A,2 G,2 x4 | x8 |] %172
V:9
 x8 | x8 | x8 | x8 | x8 | x8 | x8 | x8 | x8 | x8 | x8 | x8 | x8 | x8 | x8 | x8 | x8 | x8 | x8 | %19
 x8 | x8 | x8 | x8 | x8 | x8 | x8 | x8 | x8 | x8 | x8 | x8 | x8 | x8 | x8 | x8 | x8 | x8 | x8 | %38
 x8 | x8 | x8 | x8 | x8 | x8 | x8 | x8 | x8 | x8 | x8 | x8 | x8 | x8 | x8 | x8 | x8 | x8 | x8 | %57
 x8 | x8 | x8 | x8 | x8 | x8 | x8 | x8 | x8 | x8 | x8 | x8 | x8 | x8 | x8 | x8 | x8 | x8 | x8 | %76
 x8 | x8 | x8 | x8 | x8 | x8 | x8 | x8 | x8 | x8 | x8 | x8 | x8 | x8 | x8 | x8 | x8 | x8 | x8 | %95
 x8 | x8 | x8 | x8 | x8 | x8 | x8 | x8 | x8 | x8 | x8 | x8 | x8 | x8 | x8 | x8 | x8 | x8 || %113
[M:4/4] x8 | x8 | x8 | x8 | x8 | x8 | x8 | x8 | x8 | x8 | B2 cB x4 | x8 | F2 D_E _D2 C2 || x8 | %127
 x8 | x8 | x8 | x8 | x8 | x8 | x8 | x8 | x8 | x8 | x8 | x8 | x8 | x8 | x8 | x8 | x8 | x8 | %145
 G2 A2 x4 | x6 G2 | x8 | x8 | x8 | x8 | x8 | F4- F4 | x8 | x8 | x8 | x4 B2 A2 | x8 | x8 | x8 | x8 | %161
 x8 | x8 | x8 | x8 | x8 | x8 | x8 | x4 B2- BA | x8 | x8 | x8 |] %172

